X:123
T:Black Watch
S:Andrew Small
Q:1/4=80 "Andante"
M:4/4
L:1/8
K:A Dorian
(A>B)|(c<A)  A>B   c<A   A(e/d/)  | c>A   (A/G/).F/.E/     G2   \
 A>B |(c<A)  A>B  (c<A) ~A>B      |~c>d   (e/d/)(c/B/) ({B}A3)B|
       c>d   e>d   e>d   c>d      | ed    (d/c/B/A/)       G2   \
 c>B | A>B   c>d   e>d   c<a      | g>e   (e/d/).c/.B/  {B}A2 ||
 a>b |(c'<a) a>b   c'a   a(e'/d'/)| c'>a  (a/g/).f/.e/     g2   \
 a>b | c'>a  a>b   c'>a  a>b      | c'>d' (e'/d'/).c'/.b/  a3b |
       c'>d' e'>d' e'>d' a>d'     | e'>d' (d'/c'/)b/a/     g2   \
 c'>b| a>b   c'>d' e'>d' c'>a     | g>e   (e/d/).c/.B/ ({B}A2)|]

